img/close.svg

<svg clip-rule="evenodd" fill-rule="evenodd" stroke-linejoin="round" stroke-miterlimit="2" viewBox="0 0 334 334"
     xmlns="http://www.w3.org/2000/svg">
    <path d="m400 733.333c-157.135 0-235.702 0-284.518-48.816-48.815-48.814-48.815-127.384-48.815-284.517 0-157.135 0-235.702 48.815-284.518 48.816-48.815 127.383-48.815 284.518-48.815 157.133 0 235.703 0 284.517 48.815 48.816 48.816 48.816 127.383 48.816 284.518 0 157.133 0 235.703-48.816 284.517-48.814 48.816-127.384 48.816-284.517 48.816zm-101.012-434.344c9.763-9.763 25.593-9.763 35.355 0l65.657 65.658 65.653-65.657c9.764-9.763 25.594-9.763 35.357 0s9.763 25.592 0 35.353l-65.657 65.657 65.657 65.657c9.763 9.76 9.763 25.59 0 35.353s-25.593 9.763-35.357 0l-65.653-65.653-65.657 65.653c-9.762 9.763-25.591 9.763-35.354 0s-9.763-25.59 0-35.353l65.654-65.657-65.655-65.657c-9.763-9.762-9.763-25.591 0-35.354z"
          fill="#ffffff" transform="scale(.416667)"/>
</svg>

<?xml version="1.0" encoding="UTF-8" standalone="no"?>
<!DOCTYPE svg PUBLIC "-//W3C//DTD SVG 1.1//EN" "http://www.w3.org/Graphics/SVG/1.1/DTD/svg11.dtd">
<svg width="100%" height="100%" viewBox="0 0 334 334" version="1.1" xmlns="http://www.w3.org/2000/svg"
     xmlns:xlink="http://www.w3.org/1999/xlink" xml:space="preserve" xmlns:serif="http://www.serif.com/"
     style="fill-rule:evenodd;clip-rule:evenodd;stroke-linejoin:round;stroke-miterlimit:2;">
    <g transform="matrix(0.416667,0,0,0.416667,0,0)">
        <path d="M400,733.333C242.865,733.333 164.298,733.333 115.482,684.517C66.667,635.703 66.667,557.133 66.667,400C66.667,242.865 66.667,164.298 115.482,115.482C164.298,66.667 242.865,66.667 400,66.667C557.133,66.667 635.703,66.667 684.517,115.482C733.333,164.298 733.333,242.865 733.333,400C733.333,557.133 733.333,635.703 684.517,684.517C635.703,733.333 557.133,733.333 400,733.333ZM298.988,298.989C308.751,289.226 324.581,289.226 334.343,298.989L400,364.647L465.653,298.99C475.417,289.227 491.247,289.227 501.01,298.99C510.773,308.753 510.773,324.582 501.01,334.343L435.353,400L501.01,465.657C510.773,475.417 510.773,491.247 501.01,501.01C491.247,510.773 475.417,510.773 465.653,501.01L400,435.357L334.343,501.01C324.581,510.773 308.752,510.773 298.989,501.01C289.226,491.247 289.226,475.42 298.989,465.657L364.643,400L298.988,334.343C289.225,324.581 289.225,308.752 298.988,298.989Z"
              style="fill:white;"/>
    </g>
</svg>
